X: 1
T: Skunk on a Roll
C: Karen Myers (Aug 1998)
N:
N: Karen writes: "You have to picture two skunks playing with bagels, and rolling them like hoops."
M: 3/4
L: 1/8
K: Gdor
|: "Gm"G>A B2 B2 | "D7"A/B/A/G/ ^F2- F(E | D>E) (^F>G) A>c |1,3 "Gm"(B/c/)B/A/ B2 G2- :|
|2,4 "Gm"B2 G4 :|[K:G]|: "G"(B>c) (d>=f) e>d | "C"e2 c2 (c2 | "D7"f>g) (f>e) d>c |
| "G"B2 d4 | "G"g>(a g>f) e>d | "Am"e2 c2 (A2 | "D7"F>G) (A>c) _B>A | "Gm"_B2 G4 :|

%%sep 1 1 500

